packages/ui-kit/src/icons/svg/tutorials-small.svg

<svg viewBox="0 0 25 25" width="25px" height="25px" xmlns="http://www.w3.org/2000/svg">
  <g fill="none" fill-rule="evenodd">
    <path d="M4.2 23.9h-.1c-.1-.1-.2-.2-.2-.4v-4.3h-2c-.5 0-.9-.4-.9-.9V1.9c0-.5.4-.9.9-.9h20.8c.5 0 .9.4.9.9v16.4c0 .5-.4.9-.9.9H9.1l-4.6 4.6c-.1.1-.2.1-.3.1zm-2.4-22c-.1 0-.1 0 0 0l-.1 16.5s0 .1.1.1h2.4c.2 0 .4.2.4.4v3.8l4.1-4.1c.1-.1.2-.1.3-.1h13.7s.1 0 .1-.1V1.9s0-.1-.1-.1H1.8v.1z" fill="#044E7C" fill-rule="nonzero"/>
    <path d="M10.5 12.9c-.1 0-.3 0-.4-.1-.2-.1-.3-.3-.3-.6V8.1c0-.2.1-.5.3-.6.2-.1.5-.1.7 0l4.1 2.1c.2.1.4.4.4.6 0 .3-.1.5-.4.6l-4.1 2.1h-.3z" fill="#078CDF" fill-rule="nonzero"/>
    <path d="M10.5 12.9c-.1 0-.3 0-.4-.1-.2-.1-.3-.3-.3-.6V8.1c0-.2.1-.5.3-.6.2-.1.5-.1.7 0l4.1 2.1c.2.1.4.4.4.6 0 .3-.1.5-.4.6l-4.1 2.1h-.3z"/>
    <path d="M12.2 16.7c-3.6 0-6.6-3-6.6-6.6 0-3.6 3-6.6 6.6-6.6 3.6 0 6.6 3 6.6 6.6 0 3.6-3 6.6-6.6 6.6zm0-12.4c-3.2 0-5.8 2.6-5.8 5.8 0 3.2 2.6 5.8 5.8 5.8 3.2 0 5.8-2.6 5.8-5.8 0-3.2-2.6-5.8-5.8-5.8z" fill="#078CDF" fill-rule="nonzero"/>
  </g>
</svg>

<?xml version="1.0" encoding="UTF-8"?>
<svg width="25px" height="25px" viewBox="0 0 25 25" version="1.1" xmlns="http://www.w3.org/2000/svg" xmlns:xlink="http://www.w3.org/1999/xlink">
    <title>tutorials_25x25</title>
    <g id="Color-Scheme---Products-/-Solution" stroke="none" stroke-width="1" fill="none" fill-rule="evenodd">
        <g id="Icon-final" transform="translate(-570.000000, -119.000000)">
            <g id="tutorials_25x25" transform="translate(570.000000, 119.000000)">
                <path d="M4.2,23.9 C4.2,23.9 4.1,23.9 4.1,23.9 C4,23.8 3.9,23.7 3.9,23.5 L3.9,19.2 L1.9,19.2 C1.4,19.2 1,18.8 1,18.3 L1,1.9 C1,1.4 1.4,1 1.9,1 L22.7,1 C23.2,1 23.6,1.4 23.6,1.9 L23.6,18.3 C23.6,18.8 23.2,19.2 22.7,19.2 L9.1,19.2 L4.5,23.8 C4.4,23.9 4.3,23.9 4.2,23.9 Z M1.8,1.9 C1.7,1.9 1.7,1.9 1.8,1.9 L1.7,18.4 C1.7,18.4 1.7,18.5 1.8,18.5 L4.2,18.5 C4.4,18.5 4.6,18.7 4.6,18.9 L4.6,22.7 L8.7,18.6 C8.8,18.5 8.9,18.5 9,18.5 L22.7,18.5 C22.7,18.5 22.8,18.5 22.8,18.4 L22.8,1.9 C22.8,1.9 22.8,1.8 22.7,1.8 L1.8,1.8 L1.8,1.9 Z" id="Shape" fill="#044E7C" fill-rule="nonzero"></path>
                <path d="M10.5,12.9 C10.4,12.9 10.2,12.9 10.1,12.8 C9.9,12.7 9.8,12.5 9.8,12.2 L9.8,8.1 C9.8,7.9 9.9,7.6 10.1,7.5 C10.3,7.4 10.6,7.4 10.8,7.5 L14.9,9.6 C15.1,9.7 15.3,10 15.3,10.2 C15.3,10.5 15.2,10.7 14.9,10.8 L10.8,12.9 C10.7,12.9 10.6,12.9 10.5,12.9 Z" id="Shape" fill="#078CDF" fill-rule="nonzero"></path>
                <path d="M10.5,12.9 C10.4,12.9 10.2,12.9 10.1,12.8 C9.9,12.7 9.8,12.5 9.8,12.2 L9.8,8.1 C9.8,7.9 9.9,7.6 10.1,7.5 C10.3,7.4 10.6,7.4 10.8,7.5 L14.9,9.6 C15.1,9.7 15.3,10 15.3,10.2 C15.3,10.5 15.2,10.7 14.9,10.8 L10.8,12.9 C10.7,12.9 10.6,12.9 10.5,12.9 Z" id="Path"></path>
                <path d="M12.2,16.7 C8.6,16.7 5.6,13.7 5.6,10.1 C5.6,6.5 8.6,3.5 12.2,3.5 C15.8,3.5 18.8,6.5 18.8,10.1 C18.8,13.7 15.8,16.7 12.2,16.7 Z M12.2,4.3 C9,4.3 6.4,6.9 6.4,10.1 C6.4,13.3 9,15.9 12.2,15.9 C15.4,15.9 18,13.3 18,10.1 C18,6.9 15.4,4.3 12.2,4.3 Z" id="Shape" fill="#078CDF" fill-rule="nonzero"></path>
            </g>
        </g>
    </g>
</svg>
